X:1
T:I've Heard That Song Before
T:I've Heard That Song Before
C:Jule Styne
Z:All Rights Reserved
L:1/4
M:4/4
K:C
V:1 treble nm="Voice"
%%MIDI program 52
V:1
 z2 z G |"C" E2- E/^D/E/D/ | E c B/ A E/- |"Bm7" E2-"E7" E/^D/E/D/ | E d c/ B A/- | %5
w: It|seems * to me I've|heard that song be- fore|* * it's from an|old fam- il- iar score,|
"A7" A2- A/^G/A/G/ | A G F/ ^C E/- |"D7" E4- | E4 |"G7" z E E E | E/ D G/- G2 |"C" z A"G+7" A A | %12
w: * * I know it|well, that mel- o- dy|||It's fun- ny|how a theme *|re- calls a|
"C" A/^F/G/c/- c2 |"Am" z c c c |"Am7" c/B/c/d/-"D7" d A |"Dm7""Dm7b5" d4- |"G7" d B A G | %17
w: fav- o- rite theme *|a dream that|brought you so close * to|me|* I know each|
"C" E2- E/^D/E/D/ | E c B/ A E/- |"Bm7" E2-"E7" E/^D/E/D/ | E d c/ B A/- |"A7" A2- A/^G/A/G/ | %22
w: word * be- cause I've|heard that song be- fore|* * the ly- ric|said "For- ev- er more."|* * For- ev- er|
 _B A G/ E A/- |"Dm""A7" A4- |"Dm" A3 z | z d"C+7" d d |"F" d/c/e/d/-"Bb9" d2 |"C6" z A"B7" A A | %28
w: more's a mem- o- ry.|||Please have them|play it a- gain, *|and I'll re-|
"C6" A/G/"Em7b5"_B/A/-"A7" A E |"Dm7" F G A c |"Dm7b5" d2"G7" e2 |"C" c4- | c3 z |] %33
w: mem- ber just when * I|heard that love- ly|song be-|fore-||

